X:2
T: Jack on the Green
S: David Young's Collection of the newest Country Dances Performed in Scotland, 1740
Z: Pete Stewart
S: "Pete Stewart" <pete:wintonpottery.co.uk> tradtunes 2013-4-26
M: 9/8
L: 1/8
K: D
C2ED2FE3|A3E2G TF>ED|(CDE) (D/E/FD)E3|d3D2E TF>ED:|]
def efg fed|e3E2G TF>ED|def efg fec|d3D2E TF>ED|
edf efg fed|Tc2d efg Tf2e|agf gfe fec|d3D2E TF>ED:|]
